X:9177
T:Lady of the Lake,The. GS.028
M:6/8
L:1/8
Q:120
S:George Spencer m/s, Leeds,1831
R:Jig
O:England
A:Leeds
N:The pause is written over the double bar lin
H:1831
Z:vmp.Cherri Graebe
K:G major
BcA G2D | E2DG2D | BcA G2 E | Dddd2c | BcA G2D |! E2DG2D | E2Dc2B | AGF"
Pause"G2 :||
c | B2 B BcA | B2c def |! g2fe2d | dcB A2 c | B2B BcA | B2c def | gfe a2
g | fge d2 c :||


